;FLAVOR:Marlin
;TIME:717
;Filament used: 1.49241m
;Layer height: 0.2
;MINX:128.819
;MINY:133.819
;MINZ:0.2
;MAXX:161.181
;MAXY:166.181
;MAXZ:24.075
;POSTPROCESSED
;Generated with Cura_SteamEngine 4.12.0
M82 ;absolute extrusion mode


; Pre-Processed for Cancel-Object support by preprocess_cancellation v0.2.0
; 1 known objects
EXCLUDE_OBJECT_DEFINE NAME=Audio_Rack_Panels_stl CENTER=145.004,150.003 POLYGON=[[135.2,140.2],[135.2,159.8],[154.8,159.8],[154.8,140.2]]
START_PRINT BED_TEMP=60 EXTRUDER_TEMP=215
G92 E0
G92 E0
G1 F7200 E-1.5
;LAYER_COUNT:120
_LOG_Z
;LAYER:0
M107
G1 F3000 Z0.275
G0 F4320 X133.547 Y138.57 Z0.275
;TYPE:SKIRT
G1 F3000 Z0.2
G1 F2880 E0
G1 F3600 X134.235 Y137.92 E0.03778
G1 X134.73 Y137.496 E0.06379
G1 X135.422 Y136.959 E0.09875
G1 X135.828 Y136.662 E0.11883
G1 X136.396 Y136.287 E0.14599
G1 X137.024 Y135.917 E0.17508
G1 X137.357 Y135.738 E0.19017
G1 X138.175 Y135.329 E0.22667
G1 X138.644 Y135.112 E0.2473
G1 X139.221 Y134.878 E0.27215
G1 X139.477 Y134.785 E0.28302
G1 X139.953 Y134.623 E0.30309
G1 X140.326 Y134.509 E0.31866
G1 X141.151 Y134.285 E0.35278
G1 X141.861 Y134.126 E0.38182
G1 X142.698 Y133.984 E0.4157
G1 X143.214 Y133.912 E0.43649
G1 X143.866 Y133.852 E0.46263
G1 X144.612 Y133.82 E0.49243
G1 X145.008 Y133.819 E0.50823
G1 X145.881 Y133.844 E0.54309
G1 X146.582 Y133.896 E0.57115
G1 X147.487 Y134.011 E0.60756
G1 X148.149 Y134.128 E0.63439
G1 X149.068 Y134.339 E0.67202
G1 X149.705 Y134.518 E0.69843
G1 X150.531 Y134.794 E0.73319
G1 X151.003 Y134.966 E0.75324
G1 X151.612 Y135.223 E0.77962
G1 X151.832 Y135.325 E0.7893
G1 X152.299 Y135.554 E0.81006
G1 X152.651 Y135.741 E0.82597
G1 X153.405 Y136.173 E0.86065
G1 X154.074 Y136.593 E0.89218
G1 X154.598 Y136.965 E0.91783
G1 X155.257 Y137.486 E0.95136
G1 X155.953 Y138.091 E0.98816
G1 X156.443 Y138.559 E1.01521
G1 X157.064 Y139.216 E1.05129
G1 X157.504 Y139.73 E1.0783
G1 X158.041 Y140.422 E1.11326
G1 X158.342 Y140.834 E1.13362
G1 X158.707 Y141.387 E1.16007
G1 X159.083 Y142.023 E1.18955
G1 X159.264 Y142.36 E1.20482
G1 X159.668 Y143.17 E1.24095
G1 X159.946 Y143.802 E1.26851
G1 X160.28 Y144.679 E1.30596
G1 X160.487 Y145.311 E1.3325
G1 X160.716 Y146.149 E1.36718
G1 X160.9 Y146.954 E1.40013
G1 X161.002 Y147.559 E1.42462
G1 X161.103 Y148.411 E1.45887
G1 X161.165 Y149.3 E1.49443
G1 X161.181 Y149.987 E1.52186
G1 X161.156 Y150.898 E1.55823
G1 X161.097 Y151.723 E1.59125
G1 X161.025 Y152.284 E1.61382
G1 X160.866 Y153.184 E1.6503
G1 X160.665 Y154.054 E1.68594
G1 X160.483 Y154.703 E1.71284
G1 X160.205 Y155.533 E1.74777
G1 X159.908 Y156.314 E1.78112
G1 X159.667 Y156.848 E1.80451
G1 X159.442 Y157.305 E1.82484
G1 X159.263 Y157.642 E1.84007
G1 X158.831 Y158.398 E1.87482
G1 X158.556 Y158.849 E1.8959
G1 X158.209 Y159.361 E1.92059
G1 X157.747 Y159.973 E1.95119
G1 X157.513 Y160.259 E1.96594
G1 X156.914 Y160.948 E2.00238
G1 X156.442 Y161.44 E2.02959
G1 X155.8 Y162.048 E2.06488
G1 X155.275 Y162.498 E2.09248
G1 X154.555 Y163.057 E2.12886
G1 X153.883 Y163.535 E2.16178
G1 X153.369 Y163.855 E2.18594
G1 X152.646 Y164.259 E2.219
G1 X151.757 Y164.702 E2.25864
G1 X151.199 Y164.947 E2.28296
G1 X150.343 Y165.273 E2.31952
G1 X149.713 Y165.479 E2.34598
G1 X148.829 Y165.72 E2.38255
G1 X148.139 Y165.874 E2.41076
G1 X147.302 Y166.016 E2.44465
G1 X146.591 Y166.102 E2.47323
G1 X145.673 Y166.166 E2.50996
G1 X144.996 Y166.181 E2.53699
G1 X144.118 Y166.156 E2.57205
G1 X143.616 Y166.128 E2.59211
G1 X142.96 Y166.059 E2.61844
G1 X142.23 Y165.947 E2.64792
G1 X141.816 Y165.866 E2.66475
G1 X140.946 Y165.665 E2.70039
G1 X140.297 Y165.483 E2.72729
G1 X139.467 Y165.205 E2.76223
G1 X138.972 Y165.023 E2.78328
G1 X138.379 Y164.772 E2.80898
G1 X138.16 Y164.67 E2.81862
G1 X137.701 Y164.445 E2.83902
G1 X137.35 Y164.259 E2.85488
G1 X136.597 Y163.828 E2.88951
G1 X135.881 Y163.377 E2.92328
G1 X135.423 Y163.05 E2.94574
G1 X134.726 Y162.502 E2.98113
G1 X134.064 Y161.926 E3.01615
G1 X133.57 Y161.453 E3.04345
G1 X132.92 Y160.765 E3.08123
G1 X132.496 Y160.27 E3.10724
G1 X131.959 Y159.578 E3.1422
G1 X131.458 Y158.872 E3.17675
G1 X131.14 Y158.362 E3.20074
G1 X130.737 Y157.641 E3.23371
G1 X130.329 Y156.825 E3.27012
G1 X130.058 Y156.209 E3.29698
G1 X129.725 Y155.338 E3.3342
G1 X129.521 Y154.712 E3.36047
G1 X129.279 Y153.823 E3.39725
G1 X129.128 Y153.144 E3.42501
G1 X128.984 Y152.294 E3.45942
G1 X128.898 Y151.59 E3.48773
G1 X128.834 Y150.684 E3.52398
G1 X128.819 Y150.009 E3.55092
G1 X128.845 Y149.083 E3.5879
G1 X128.903 Y148.277 E3.62015
G1 X128.975 Y147.716 E3.64272
G1 X129.134 Y146.817 E3.67916
G1 X129.336 Y145.942 E3.715
G1 X129.512 Y145.317 E3.74092
G1 X129.826 Y144.38 E3.78036
G1 X130.05 Y143.807 E3.80492
G1 X130.448 Y142.922 E3.84365
G1 X130.72 Y142.389 E3.86753
G1 X131.184 Y141.577 E3.90486
G1 X131.448 Y141.146 E3.92503
G1 X131.805 Y140.622 E3.95033
G1 X132.235 Y140.049 E3.97893
G1 X132.493 Y139.732 E3.99524
G1 X133.085 Y139.052 E4.03122
G1 X133.547 Y138.57 E4.05787
G0 F4320 X133.877 Y138.919
G1 F3600 X134.565 Y138.269 E4.09565
G1 X135.024 Y137.875 E4.11979
G1 X135.716 Y137.338 E4.15475
G1 X136.375 Y136.87 E4.18701
G1 X136.865 Y136.564 E4.21007
G1 X137.572 Y136.167 E4.24243
G1 X138.39 Y135.758 E4.27893
G1 X139.109 Y135.437 E4.31036
G1 X139.632 Y135.239 E4.33268
G1 X140.108 Y135.077 E4.35275
G1 X140.452 Y134.972 E4.3671
G1 X141.277 Y134.748 E4.40122
G1 X141.941 Y134.6 E4.42838
G1 X142.778 Y134.458 E4.46226
G1 X143.277 Y134.388 E4.48237
G1 X143.903 Y134.33 E4.50746
G1 X144.629 Y134.3 E4.53646
G1 X144.995 Y134.298 E4.55107
G1 X145.868 Y134.323 E4.58593
G1 X146.521 Y134.373 E4.61207
G1 X147.426 Y134.488 E4.64848
G1 X148.042 Y134.596 E4.67344
G1 X148.961 Y134.807 E4.71107
G1 X149.553 Y134.973 E4.73561
G1 X150.379 Y135.249 E4.77037
G1 X151.156 Y135.546 E4.80357
G1 X151.62 Y135.756 E4.8239
G1 X152.087 Y135.985 E4.84466
G1 X152.413 Y136.158 E4.85939
G1 X153.167 Y136.59 E4.89407
G1 X153.8 Y136.986 E4.92387
G1 X154.306 Y137.346 E4.94866
G1 X154.943 Y137.848 E4.98103
G1 X155.639 Y138.453 E5.01784
G1 X156.094 Y138.889 E5.04299
G1 X156.715 Y139.546 E5.07907
G1 X157.125 Y140.024 E5.1042
G1 X157.662 Y140.716 E5.13916
G1 X158.119 Y141.359 E5.17065
G1 X158.442 Y141.874 E5.19491
G1 X158.835 Y142.574 E5.22695
G1 X159.239 Y143.384 E5.26308
G1 X159.497 Y143.973 E5.28874
G1 X159.831 Y144.85 E5.3262
G1 X160.024 Y145.437 E5.35086
G1 X160.253 Y146.275 E5.38553
G1 X160.428 Y147.038 E5.41678
G1 X160.526 Y147.622 E5.44041
G1 X160.624 Y148.444 E5.47345
G1 X160.686 Y149.333 E5.50902
G1 X160.701 Y149.974 E5.53461
G1 X160.676 Y150.885 E5.57098
G1 X160.62 Y151.666 E5.60224
G1 X160.551 Y152.208 E5.62404
G1 X160.398 Y153.076 E5.65922
G1 X160.197 Y153.946 E5.69486
G1 X160.028 Y154.551 E5.71993
G1 X159.75 Y155.381 E5.75487
G1 X159.468 Y156.122 E5.78651
G1 X159.237 Y156.636 E5.809
G1 X159.012 Y157.093 E5.82933
G1 X158.846 Y157.404 E5.8434
G1 X158.414 Y158.16 E5.87816
G1 X158.148 Y158.596 E5.89854
G1 X157.816 Y159.087 E5.9222
G1 X157.366 Y159.68 E5.95191
G1 X157.151 Y159.944 E5.9655
G1 X156.552 Y160.633 E6.00194
G1 X156.112 Y161.091 E6.02728
G1 X155.47 Y161.699 E6.06257
G1 X154.981 Y162.119 E6.0883
G1 X154.261 Y162.678 E6.12468
G1 X153.625 Y163.13 E6.15583
G1 X153.129 Y163.44 E6.17917
G1 X152.432 Y163.83 E6.21105
G1 X151.543 Y164.273 E6.25069
G1 X151.028 Y164.498 E6.27312
G1 X150.172 Y164.824 E6.30968
G1 X149.587 Y165.016 E6.33425
G1 X148.703 Y165.257 E6.37082
G1 X148.059 Y165.4 E6.39715
G1 X147.222 Y165.542 E6.43104
G1 X146.558 Y165.623 E6.45774
G1 X145.64 Y165.687 E6.49446
G1 X145.009 Y165.702 E6.51966
G1 X144.131 Y165.677 E6.55471
G1 X143.334 Y165.62 E6.5866
G1 X142.792 Y165.551 E6.60841
G1 X141.924 Y165.398 E6.64359
G1 X141.054 Y165.197 E6.67923
G1 X140.449 Y165.028 E6.7043
G1 X139.619 Y164.75 E6.73923
G1 X139.141 Y164.574 E6.75956
G1 X138.573 Y164.333 E6.78419
G1 X138.371 Y164.239 E6.79308
G1 X137.912 Y164.014 E6.81349
G1 X137.589 Y163.842 E6.82809
G1 X136.836 Y163.411 E6.86272
G1 X136.156 Y162.984 E6.89477
G1 X135.714 Y162.668 E6.91645
G1 X135.041 Y162.14 E6.95059
G1 X134.379 Y161.564 E6.98562
G1 X133.919 Y161.123 E7.01105
G1 X133.269 Y160.435 E7.04883
G1 X132.875 Y159.976 E7.07297
G1 X132.338 Y159.284 E7.10793
G1 X131.863 Y158.615 E7.14068
G1 X131.556 Y158.121 E7.16389
G1 X131.166 Y157.426 E7.1957
G1 X130.758 Y156.61 E7.23211
G1 X130.506 Y156.038 E7.25706
G1 X130.173 Y155.167 E7.29428
G1 X129.984 Y154.586 E7.31866
G1 X129.742 Y153.697 E7.35543
G1 X129.601 Y153.063 E7.38136
G1 X129.457 Y152.213 E7.41577
G1 X129.377 Y151.556 E7.44218
G1 X129.313 Y150.65 E7.47843
G1 X129.299 Y150.022 E7.5035
G1 X129.325 Y149.096 E7.54048
G1 X129.38 Y148.334 E7.57097
G1 X129.449 Y147.792 E7.59278
G1 X129.602 Y146.925 E7.62791
G1 X129.804 Y146.05 E7.66376
G1 X129.967 Y145.469 E7.68784
G1 X130.281 Y144.532 E7.72728
G1 X130.488 Y144.004 E7.74992
G1 X130.886 Y143.119 E7.78865
G1 X131.137 Y142.627 E7.81069
G1 X131.601 Y141.815 E7.84802
G1 X132.012 Y141.163 E7.87878
G1 X132.334 Y140.712 E7.9009
G1 X132.855 Y140.047 E7.93461
G1 X133.447 Y139.367 E7.9706
G1 X133.877 Y138.919 E7.99538
G0 F4320 X134.206 Y139.268
G1 F3600 X134.894 Y138.618 E8.03316
G1 X135.319 Y138.254 E8.05549
G1 X136.011 Y137.717 E8.09045
G1 X136.634 Y137.274 E8.12096
G1 X137.106 Y136.979 E8.14318
G1 X137.787 Y136.596 E8.17436
G1 X138.605 Y136.187 E8.21086
G1 X139.283 Y135.885 E8.24049
G1 X139.787 Y135.693 E8.26201
G1 X140.263 Y135.531 E8.28208
G1 X140.578 Y135.435 E8.29523
G1 X141.403 Y135.211 E8.32935
G1 X142.022 Y135.073 E8.35466
G1 X142.859 Y134.931 E8.38854
G1 X143.621 Y134.834 E8.4192
G1 X144.164 Y134.796 E8.44093
G1 X144.981 Y134.778 E8.47354
G1 X145.854 Y134.803 E8.5084
G1 X146.461 Y134.849 E8.5327
G1 X147.366 Y134.964 E8.56911
G1 X147.935 Y135.064 E8.59216
G1 X148.854 Y135.275 E8.6298
G1 X149.401 Y135.428 E8.65247
G1 X150.227 Y135.704 E8.68723
G1 X150.961 Y135.985 E8.7186
G1 X151.409 Y136.187 E8.73821
G1 X151.876 Y136.416 E8.75897
G1 X152.174 Y136.574 E8.77243
G1 X152.928 Y137.006 E8.80711
G1 X153.525 Y137.38 E8.83523
G1 X154.014 Y137.727 E8.85916
G1 X154.628 Y138.21 E8.89034
G1 X155.324 Y138.815 E8.92715
G1 X155.745 Y139.219 E8.95044
G1 X156.366 Y139.876 E8.98652
G1 X156.746 Y140.319 E9.00982
G1 X157.283 Y141.011 E9.04478
G1 X157.715 Y141.618 E9.07451
G1 X158.027 Y142.114 E9.0979
G1 X158.405 Y142.788 E9.12874
G1 X158.809 Y143.598 E9.16487
G1 X159.049 Y144.144 E9.18867
G1 X159.383 Y145.021 E9.22613
G1 X159.561 Y145.564 E9.24893
G1 X159.79 Y146.402 E9.28361
G1 X159.955 Y147.123 E9.31313
G1 X160.05 Y147.685 E9.33588
G1 X160.145 Y148.477 E9.36771
G1 X160.207 Y149.366 E9.40328
G1 X160.221 Y149.961 E9.42704
G1 X160.196 Y150.872 E9.46341
G1 X160.144 Y151.609 E9.4929
G1 X160.077 Y152.132 E9.51394
G1 X159.931 Y152.968 E9.54781
G1 X159.73 Y153.838 E9.58345
G1 X159.573 Y154.398 E9.60667
G1 X159.295 Y155.228 E9.6416
G1 X159.028 Y155.929 E9.67154
G1 X158.806 Y156.424 E9.69319
G1 X158.581 Y156.881 E9.71352
G1 X158.43 Y157.166 E9.7264
G1 X157.998 Y157.922 E9.76115
G1 X157.586 Y158.577 E9.79203
G1 X157.277 Y159.009 E9.81323
G1 X156.789 Y159.629 E9.84472
G1 X156.19 Y160.318 E9.88116
G1 X155.782 Y160.743 E9.90468
G1 X155.14 Y161.351 E9.93997
G1 X154.686 Y161.74 E9.96383
G1 X153.966 Y162.299 E10.00021
G1 X153.366 Y162.726 E10.0296
G1 X152.889 Y163.024 E10.05205
G1 X152.218 Y163.4 E10.08275
G1 X151.329 Y163.843 E10.12239
G1 X150.857 Y164.05 E10.14296
G1 X150.001 Y164.376 E10.17952
G1 X149.46 Y164.552 E10.20223
G1 X148.576 Y164.793 E10.2388
G1 X147.978 Y164.927 E10.26326
G1 X147.141 Y165.069 E10.29714
G1 X146.524 Y165.144 E10.32195
G1 X145.606 Y165.208 E10.35868
G1 X145.023 Y165.222 E10.38195
G1 X144.145 Y165.197 E10.41701
G1 X143.391 Y165.144 E10.44718
G1 X142.868 Y165.077 E10.46822
G1 X142.032 Y164.931 E10.50209
G1 X141.162 Y164.73 E10.53773
G1 X140.602 Y164.573 E10.56094
G1 X139.772 Y164.295 E10.59588
G1 X139.03 Y164.01 E10.6276
G1 X138.583 Y163.808 E10.64718
G1 X138.124 Y163.583 E10.66758
G1 X137.827 Y163.426 E10.68099
G1 X137.074 Y162.995 E10.71562
G1 X136.432 Y162.591 E10.7459
G1 X136.005 Y162.287 E10.76682
G1 X135.356 Y161.778 E10.79974
G1 X134.694 Y161.202 E10.83476
G1 X134.268 Y160.794 E10.8583
G1 X133.618 Y160.106 E10.89608
G1 X133.254 Y159.681 E10.91841
G1 X132.717 Y158.989 E10.95337
G1 X132.268 Y158.357 E10.98431
G1 X131.971 Y157.881 E11.00671
G1 X131.595 Y157.211 E11.03737
G1 X131.187 Y156.395 E11.07378
G1 X130.955 Y155.866 E11.09684
G1 X130.622 Y154.995 E11.13406
G1 X130.447 Y154.46 E11.15652
G1 X130.205 Y153.571 E11.1933
G1 X130.075 Y152.983 E11.21733
G1 X129.931 Y152.133 E11.25174
G1 X129.856 Y151.522 E11.27631
G1 X129.792 Y150.616 E11.31256
G1 X129.779 Y150.036 E11.33571
G1 X129.805 Y149.11 E11.37269
G1 X129.856 Y148.391 E11.40146
G1 X129.923 Y147.868 E11.4225
G1 X130.069 Y147.033 E11.45633
G1 X130.271 Y146.158 E11.49217
G1 X130.423 Y145.622 E11.51441
G1 X130.737 Y144.685 E11.55385
G1 X130.926 Y144.201 E11.57459
G1 X131.324 Y143.316 E11.61332
G1 X131.553 Y142.865 E11.63351
G1 X132.017 Y142.053 E11.67084
G1 X132.406 Y141.438 E11.69988
G1 X132.716 Y141.002 E11.72123
G1 X133.217 Y140.362 E11.75367
G1 X133.809 Y139.682 E11.78966
G1 X134.206 Y139.268 E11.81255
G1 F7200 E10.31255
G1 F3000 Z0.275
;MESH:Audio Rack Panels.stl
EXCLUDE_OBJECT_START NAME=Audio_Rack_Panels_stl
G0 F4320 X140.614 Y145.614 Z0.275
;TYPE:WALL-INNER
G1 F3000 Z0.2
G1 F2880 E11.81255
G1 F3600 X140.204 Y146.069 E11.83699
G1 X139.843 Y146.555 E11.86116
G1 X139.529 Y147.08 E11.88557
G1 X139.271 Y147.627 E11.90971
G1 X139.065 Y148.202 E11.93409
G1 X138.918 Y148.792 E11.95836
G1 X138.829 Y149.392 E11.98257
G1 X138.798 Y150.002 E12.00694
G1 X138.829 Y150.608 E12.03116
G1 X138.918 Y151.211 E12.05549
G1 X139.065 Y151.801 E12.07976
G1 X139.272 Y152.375 E12.10411
G1 X139.531 Y152.925 E12.12838
G1 X139.844 Y153.446 E12.15263
G1 X140.206 Y153.935 E12.17692
G1 X140.615 Y154.387 E12.20125
G1 X141.067 Y154.796 E12.22558
G1 X141.554 Y155.157 E12.24977
G1 X142.078 Y155.47 E12.27413
G1 X142.627 Y155.729 E12.29836
G1 X143.201 Y155.935 E12.3227
G1 X143.791 Y156.082 E12.34697
G1 X144.395 Y156.171 E12.37134
G1 X145.002 Y156.202 E12.39559
G1 X145.61 Y156.171 E12.41989
G1 X146.211 Y156.082 E12.44414
G1 X146.803 Y155.935 E12.46849
G1 X147.373 Y155.729 E12.49268
G1 X147.923 Y155.47 E12.51694
G1 X148.447 Y155.155 E12.54134
G1 X148.933 Y154.795 E12.56548
G1 X149.387 Y154.385 E12.5899
G1 X149.796 Y153.931 E12.61429
G1 X150.157 Y153.445 E12.63845
G1 X150.471 Y152.92 E12.66287
G1 X150.729 Y152.371 E12.68708
G1 X150.935 Y151.801 E12.71127
G1 X151.082 Y151.207 E12.73569
G1 X151.171 Y150.608 E12.75986
G1 X151.202 Y150 E12.78416
G1 X151.171 Y149.39 E12.80853
G1 X151.082 Y148.788 E12.83282
G1 X150.935 Y148.199 E12.85705
G1 X150.729 Y147.627 E12.88132
G1 X150.469 Y147.075 E12.90567
G1 X150.155 Y146.553 E12.92998
G1 X149.795 Y146.067 E12.95412
G1 X149.386 Y145.614 E12.97848
G1 X148.932 Y145.205 E13.00287
G1 X148.443 Y144.842 E13.02718
G1 X147.92 Y144.529 E13.0515
G1 X147.373 Y144.271 E13.07564
G1 X146.798 Y144.065 E13.10002
G1 X146.207 Y143.918 E13.12433
G1 X145.606 Y143.829 E13.14858
G1 X145 Y143.798 E13.17279
G1 X144.393 Y143.829 E13.19705
G1 X143.789 Y143.918 E13.22142
G1 X143.199 Y144.065 E13.24569
G1 X142.625 Y144.272 E13.27004
G1 X142.075 Y144.531 E13.29431
G1 X141.554 Y144.844 E13.31856
G1 X141.066 Y145.206 E13.34282
G1 X140.614 Y145.614 E13.36712
G0 F4320 X140.954 Y145.954
G1 F3600 X140.576 Y146.373 E13.38964
G1 X140.243 Y146.822 E13.41195
G1 X139.953 Y147.306 E13.43447
G1 X139.715 Y147.811 E13.45675
G1 X139.525 Y148.341 E13.47923
G1 X139.389 Y148.886 E13.50164
G1 X139.307 Y149.439 E13.52396
G1 X139.279 Y150.002 E13.54646
G1 X139.307 Y150.561 E13.56879
G1 X139.389 Y151.118 E13.59127
G1 X139.525 Y151.661 E13.61361
G1 X139.716 Y152.191 E13.63609
G1 X139.955 Y152.698 E13.65846
G1 X140.244 Y153.179 E13.68086
G1 X140.578 Y153.63 E13.70326
G1 X140.955 Y154.047 E13.7257
G1 X141.372 Y154.424 E13.74813
G1 X141.821 Y154.757 E13.77044
G1 X142.304 Y155.046 E13.79291
G1 X142.811 Y155.285 E13.81528
G1 X143.341 Y155.475 E13.83775
G1 X143.884 Y155.611 E13.86009
G1 X144.442 Y155.693 E13.8826
G1 X145.002 Y155.721 E13.90498
G1 X145.563 Y155.693 E13.9274
G1 X146.118 Y155.611 E13.94979
G1 X146.663 Y155.475 E13.97221
G1 X147.189 Y155.285 E13.99453
